!!!COM: Georges Bizet
!!!CNT: Francais
!!!TXO: Francais
!!!OTL: Douce Mer
!!!LYR: Alphonse de Lamartine
!!!ENC: Jacob Pegg
!!!YOR: Romantic French Song 1830-1870 -David Tunley, ed.,
!!!YOR: New York: Garland Publishing, Inc., 1995, Vol. 4
!!!ODT: 1867/
!!NB: Vocal melody and text only encoded.
!!NB: First instance of melodic material only encoded.
**kern	**silbe
*clef G2	*
*k[b-]	*
*M6/8	*
!!created: 5/5/03 15:16
!!proofed and posted: 5/6/03 22:08
!!edit time: 59 min.
=1	=1
2.r	.
=2	=2
4r	.
8r	.
4r	.
{8c	{Mur-
=3	=3
[4.cc	-mure
4cc]	|
8cc	au-
=4	=4
4ff	-tour
8cc	de
(8b-	ma
8a)	|
8g	na-
=5	=5
(16f	-cel-
16a)	-le,
[4cc	|
4.cc_	|
=6	=6
8cc]}	|}
8r	.
8r	.
{4cc	{Dou-
8cc	-ce
=7	=7
[2.cc	mer
=8	=8
8cc]	|
8b-	dont
8a	les
4g	flots
8a	che/-
=9	=9
2.f}	-ris,}
=10	=10
4r	.
8r	.
{4.c	{Ain-
=11	=11
4.cc	-si
4c	qu'une
8c	a-
=12	=12
(4ff	-man-
8cc)	|
(8b-	-te
8a)	|
8g	fi-
=13	=13
(16f	-de/-
16a)	-le,
[4cc	|
4.cc_	|
=14	=14
4.cc_	|
4cc]}	|}
8r	.
=15	=15
{4f	{Jet-
8f	-tent
4f	u-
8f	-ne
=16	=16
4.cc	plainte
4cc	e/-
8cc	-ter-
=17	=17
(8bn	-nel-
8g	|
8bn)	|
[4.bn	-le
=18	=18
4.bn_	|
4bn]}	|}
8r	.
=19	=19
{4.b-	{Sur
8b-	ces
8b-	po-
8b-	-e/-
=20	=20
4.dd-	-ti-
4b-	-ques
8b-	de/-
=21	=21
4a-}	-bris.}
8r	.
4r	.
8r	.
=22	=22
8r	.
{(8f	{Ah!
8a)	|
[4.cc	|
=23	=23
8cc]	|
(8cc	|
qdd	|
8dd	|
[4.cc)	|
=24	=24
8cc]}	|}
{8cc	{|
8cc	|
(16ccq	|
16ddq	|
16cc)	|
16b-	|
16a	|
16g	|
16f	|
16e	|
=25	=25
[2.ff	|
=26	=26
4ff]}	|}
8r	.
4r	.
{8c	{Que
=27	=27
4.g	j'aime
4g	a\
8g	flot-
=28	=28
4.a	-ter
(8bn	sur
8cc)	|
8dd	ton
=29	=29
4.dd	on-
4.cc}	-de,}
=30	=30
4r	.
8r	.
{4.cc	{A\
=31	=31
[4.cc	l'heure
8cc]	|
8bn	ou\
8a	du
=32	=32
4.bn	haut
4a	du
8g	ro-
=33	=33
2.g}	-cher}
=34	=34
4r	.
8r	.
{4c	{L'o-
8c	-ran-
=35	=35
4.g}	-ger,}
4r	.
{8g	{la
=36	=36
4.a	vi-
(8bn	-gne
8cc)	|
8dd	fe/-
=37	=37
4dd	-con-
8cc}	-de,}
{4.ee	{Ver-
=38	=38
8ee	-sent
8dd	sur
8cc	ta
8cc	va-
8bn	-gue
8a	pro-
=39	=39
(4g#	-fon-
8bn)	|
4.bn}	-de}
=40	=40
4r	.
8r	.
{4.bn	{Une
=41	=41
4.bn	om-
4bn	-bre
8bn	pro-
=42	=42
4.bn	-pice
(8a	au
8bn)	|
8g	no-
=43	=43
2.cc}	-cher!}
=44	=44
4r	.
8r	.
{4.cc	{Sou-
=45	=45
4.b-	-vent,
4b-	dans
8b-	ma
=46	=46
4.b-	bar-
4b-	-que
8b-	sans
=47	=47
2.dd	ra-
=48	=48
8b-}	-me,}
8r	.
{8b-	{Me
4b-	con-
8a	-fi-
=49	=49
[2.a	-ant
=50	=50
4a]	|
8g	a\
(16gq	|
16aq	|
8g	ton
8f)	|
8g	a-
=51	=51
[2.a	-mour,
=52	=52
4a]}	|}
8r	.
4r	.
8r	.
=53	=53
{4.f	{Com-
4f	-me
8f	pour
=54	=54
4cc	as-
8cc	-sou-
4cc	-pir
8a	mon
=55	=55
2.f	a\-
=56	=56
4f}	-me,}
8r	.
4r	.
{8f	{Je
=57	=57
[4.f	ferme,
4f]	|
8f	au
=58	=58
4cc	bran-
8cc	-le
4cc	de
8a	ta
=59	=59
2.f	la-
=60	=60
4f}	-me,}
8r	.
{4f	{Mes
8f	re-
=61	=61
[4.g	-gards
8g]	|
8a	fa-
8b-	-ti-
=62	=62
(4.cc	-gue/s
4g)	|
8a	du
=63	=63
2.f}	jour.}
*-	*-
